!!!ONB: MCCC : ILB0325_01 : Extracted Monophonic Melody
!!!COM: Beethoven, Ludwig van
!!!OPR: Violin Sonata No.4 in A minor
!!!OMV: 1
!!!SCT: Op.23
!!!ODT: 1800///
**kern
*staff1
=1
*clefG2
*k[]
*C:
*M6/8
2.e
=2
2.e
=3
4.f
4.f
=4
2.f[
=5
4.f]
8.g#
16.a
16.b
=6
4.cc
8.cc#
16.dd
16.ee
=7
4.a
4.a
=8
4.a
8.ee
16.cc
16.a
=9
8.e
16.g#
16.b
4.ee
=10
8.a
16.cc
16.ee
4.aa[
=11
4.aa]
16aa
16aa
16aa
16aa
16aa[
32aa]
32gg#
=12
4.aa
4r
8cc
=13
32cc[
16.cc]
32r
16.a
32r
16.g
32r
16.f
32r
16.e
32r
16.d
=14
4.c
4r
8dd
=15
32dd
16.ee
8dd
8dd
32dd
16.ee
8dd
8dd
=16
4.ee
4r
8ee
=17
32ee[
16.ee]
32r
16.cc
32r
16.b
32r
16.a
32r
16.g
32r
16.f#
=18
4.e
4r
8ff#
=19
32ff#
16.gg
8ff#
8ff#
32ff#
16.gg
8ff#
8ff#
=20
4.gg
4r
8gg
=21
32gg[
16.gg]
32r
16.ee
32r
16.dd
32r
16.cc
32r
16.b
32r
16.a
=22
2.g
=23
4.g
4.f#
=24
4.e-[
8e-]
8e-
8f#
=25
4.e
8e
8f#[
8f#]
=26
16.e-
16.r
16.b
16.a#
4.b
=27
8b
8cc
8cc
4cc
8cc#
=28
4b
8cc#
4cc#
8cc#
=29
4.b
4r
8B
=30
4g
8g
4g
8a
=31
4b
8b
4b
8cc#
=32
2.dd
=33
4.dd[
4dd]
8dd
=34
4dd
8cc
4cc
8ee
=35
4ee
8dd
4cc
8dd
=36
4dd
8cc
4b
8b-
=37
4.b
4.r
=38
2.r
=39
4.r
4r
8g
=40
4g
8f#
4e
8e
=41
4f#
8g
4a
8b
=42
4.cc
4cc
8cc
=43
4b
8a
4b
8b
=44
4a
8g
4f#
8e[
=45
4.e]
4.r
=46
4r
8b
4.cc[
=47
4cc]
8a
4.b
=48
8.b
16.g
16.a
8a
8g[
8g]
=49
4c
8cc
4cc
8g
=50
4.b
8b
32b[
16.b]
32r
16.g
=51
4g[
8g]
4e[
8e]
=52
4.ee
8ee
32ee[
16.ee]
32r
16.g
=53
4g[
8g]
4e[
8e]
=54
4.e
8e
8f#
8g
=55
4.f#
8f#
8g#
8a
=56
4.g#
8g#
8a
8b
=57
8.a
16.b
16.cc
8.g
16.a
16.f#
=58
16.e
16.r
16.ee
16.dd#
4.ee[
=59
8ee]
8ee[
8ee]
4.ee[
=60
8ee]
8ee[
8ee]
4.ee
=61
8ee
32ee
16.eee
32r
16.eee
8.eee
16.fff#
16.ddd#
=62
4.eee
4ee-
8ee-
=63
4cc
8a
4.d
=64
16.e
16.r
16.aa
16.gg#
4aa
8aa
=65
4ff#
8ee-
4.a
=66
32a
16.a[
8a]
8a
4.a
=67
32a
16.a[
8a]
8a
4.a[
=68
4.a]
4.r
=69
2.r
=70
2.e
=71
2.e
=72
4.f
4.f
=73
2.f[
=74
4.f]
8.g#
16.a
16.b
=75
4.cc
8.cc#
16.dd
16.ee
=76
4.a
4.a
=77
4.a
8.ee
16.cc
16.a
=78
8.e
16.g#
16.b
4.ee
=79
8.a
16.cc
16.ee
4.aa[
=80
4.aa]
16aa
16aa
16aa
16aa
16aa[
32aa]
32gg#
=81
4.aa
4r
8cc
=82
32cc[
16.cc]
32r
16.a
32r
16.g
32r
16.f
32r
16.e
32r
16.d
=83
4.c
4r
8dd
=84
32dd
16.ee
8dd
8dd
32dd
16.ee
8dd
8dd
=85
4.ee
4r
8ee
=86
32ee[
16.ee]
32r
16.cc
32r
16.b
32r
16.a
32r
16.g
32r
16.f#
=87
4.e
4r
8ff#
=88
32ff#
16.gg
8ff#
8ff#
32ff#
16.gg
8ff#
8ff#
=89
4.gg
4r
8gg
=90
32gg[
16.gg]
32r
16.ee
32r
16.dd
32r
16.cc
32r
16.b
32r
16.a
=91
2.g
=92
4.g
4.f#
=93
4.e-[
8e-]
8e-
8f#
=94
4.e
8e
8f#[
8f#]
=95
16.e-
16.r
16.b
16.a#
4.b
=96
8b
8cc
8cc
4cc
8cc#
=97
4b
8cc#
4cc#
8cc#
=98
4.b
4r
8B
=99
4g
8g
4g
8a
=100
4b
8b
4b
8cc#
=101
2.dd
=102
4.dd[
4dd]
8dd
=103
4dd
8cc
4cc
8ee
=104
4ee
8dd
4cc
8dd
=105
4dd
8cc
4b
8b-
=106
4.b
4.r
=107
2.r
=108
4.r
4r
8g
=109
4g
8f#
4e
8e
=110
4f#
8g
4a
8b
=111
4.cc
4cc
8cc
=112
4b
8a
4b
8b
=113
4a
8g
4f#
8e[
=114
4.e]
4.r
=115
4r
8b
4.cc[
=116
4cc]
8a
4.b
=117
8.b
16.g
16.a
8a
8g[
8g]
=118
4c
8cc
4cc
8g
=119
4.b
8b
32b[
16.b]
32r
16.g
=120
4g[
8g]
4e[
8e]
=121
4.ee
8ee
32ee[
16.ee]
32r
16.g
=122
4g[
8g]
4e[
8e]
=123
4.e
8e
8f#
8g
=124
4.f#
8f#
8g#
8a
=125
4.g#
8g#
8a
8b
=126
8.a
16.b
16.cc
8.g
16.a
16.f#
=127
16.e
16.r
16.ee
16.dd#
4.ee[
=128
8ee]
8ee[
8ee]
4.ee[
=129
8ee]
8ee[
8ee]
4.ee
=130
8ee
32ee
16.eee
32r
16.eee
8.eee
16.fff#
16.ddd#
=131
4.eee
4ee-
8ee-
=132
4cc
8a
4.d
=133
16.e
16.r
16.aa
16.gg#
4aa
8aa
=134
4ff#
8ee-
4.a
=135
32a
16.a[
8a]
8a
4.a
=136
32a
16.a[
8a]
8a
4.a[
=137
4.a]
4.r
=138
2.r
=139
2.r
=140
64ff
32.gg
16r
4aa
32r
16.gg
32r
16.ff
32r
16.ee
=141
4.dd
4.a
=142
8a
8a
8e
32r
16.f
32r
16.g
32r
16.a
=143
2.b-
=144
8b-
8b-
8f
32r
16.g
32r
16.a
32r
16.b-
=145
4.a
4.r
=146
2.r
=147
64ccc
32.ddd
16r
8eee-
32r
16.ddd
32r
16.ccc
32r
16.bb-
32r
16.aa
=148
32r
16.gg
32r
16.ff#
32r
16.ee-
8.dd
16.ee-
16.a
=149
8cc[
4cc]
4.r
=150
2.r
=151
64bb-
32.ccc
16r
8ccc#
32r
16.ccc
32r
16.bb-
32r
16.aa
32r
16.gg
=152
32r
16.ff
32r
16.ee
32r
16.dd
8.cc
16.dd
16.b-
=153
4.a
4.cc
=154
4.cc
4.ff
=155
4.ee
4.gg
=156
4.gg[
4.gg]
=157
4.a
4.cc
=158
4.cc
4aa[
8aa]
=159
4ee
8gg
4.bb-
=160
4bb-
8bb-
4gg
8ee
=161
4.a
4.cc[
=162
4.cc]
4.cc[
=163
4.cc]
8.b
16.a
16.g
=164
4.f#
4.f#
=165
4.e
4.r
=166
2.r
=167
4.r
4.ff[
=168
4.ff]
4.ff[
=169
4.ff]
8.ee
16.dd
16.cc
=170
4.b
4.b
=171
4.a
4.r
=172
2.r
=173
4.r
4.bb-[
=174
4.bb-]
4.bb-[
=175
4.bb-]
8.aa
16.gg
16.ff
=176
4.ee
4.ee
=177
4.dd
4.c#
=178
8c#[
32c#]
16.c#
32r
16.c#
32r
16.c#
32r
16.d
32r
16.e
=179
32r
16.f
32r
16.aa
32r
16.gg
32r
16.ff
32r
16.ee
32r
16.dd
=180
4.cc#
4.r
=181
32r
16.dd
32r
16.aa
32r
16.gg
32r
16.ff
32r
16.ee
32r
16.dd
=182
4.cc#
4.r
=183
32r
16.ff
32r
16.ee
32r
16.dd
32r
16.cc
32r
16.b
32r
16.a
=184
4.g#
4.r
=185
32r
16.a
32r
16.ee
32r
16.dd
32r
16.cc
32r
16.b
32r
16.a
=186
4.g#
4.r
=187
4cc[
8cc]
32r
16.a
32r
16.g
32r
16.f
=188
32r
16.e
32r
16.d
32r
16.c
32r
16.B
32r
16.c
32r
16.A
=189
16.e
16.r
16.ee
16.dd#
4.ee
=190
8ee
8ff[
8ff]
4.ee-
=191
4.ee
8r
8e
8g#
=192
4.f#
8f#
8a[
8a]
=193
4.e
8e
8f[
8f]
=194
4.f
8f
8b-[
8b-]
=195
4.g#
8g#
8dd[
8dd]
=196
4.dd[
8dd]
8dd[
8dd]
=197
4.dd
8dd
8dd
8b
=198
4.g#[
4g#]
8g#
=199
4.a[
4a]
8a
=200
4.a
4g#
8g#
=201
4.a
8a
8a
8g
=202
8.e
16.d
16.c
8.B
16.c
16.A
=203
2.d
=204
4.d[
4d]
8e
=205
4.ee
4ee[
8ee]
=206
8.dd
16.cc
16.b
4a
32r
16.a
=207
8.a
16.g#
16.a
4b
32r
16.b
=208
8.b
16.a
16.b
4cc
8cc
=209
4.ee
4ee[
8ee]
=210
8.dd
16.cc
16.b
4a
32r
16.a
=211
8.a
16.g#
16.a
4b
32r
16.b
=212
8.b
16.cc
16.b
4.a
=213
2.e
=214
4.f
4.f
=215
4.g
4.g
=216
4.a
4a[
8a]
=217
2.e
=218
4.f
4.f
=219
4.g
4.g
=220
4.a[
4.a]
=221
2.r
=222
4.r
4r
8f
=223
4.ff
4ff[
8ff]
=224
8.ee-
16.dd
16.cc
4b-
32r
16.b-
=225
8.b-
16.a
16.b-
4cc
32r
16.cc
=226
8.cc
16.b-
16.cc
4dd
32r
16.dd
=227
8.dd
16.cc#
16.dd
4ee
32r
16.ee
=228
8.ee
16.dd
16.ee
4ff
32r
16.ff
=229
4.ff[
4ff]
8aa[
=230
4aa]
8ff[
4ff]
8aa[
=231
4aa]
8ff[
4ff]
8ff[
=232
4ff]
32r
16.dd
4cc
32r
16.b
=233
4.cc
4.r
=234
4.a
4.r
=235
64dd
32.ee
16r
4ff
8.ee
16.dd
16.cc
=236
4.b
4.r
=237
4.B
8.g#
16.a
16.b
=238
4.cc
8.cc#
16.dd
16.ee
=239
4.a
4.a
=240
4.a
8.ee
16.cc
16.a
=241
8.e
16.g#
16.b
4.ee
=242
8.a
16.cc
16.ee
4.aa
=243
8.dd
16.ff
16.aa
4.ddd
=244
8.gg
16.bb
16.ddd
4.ggg
=245
8ggg
8ggg
8fff#
8.ggg
16.ddd
16.fff
=246
8.eee-
16.bb
16.ddd
8ddd
8ccc
8aa
=247
32r
16.gg
8dd[
8dd]
8.b
16.B
16.d
=248
8.c
16.d
16.f
8f
8e-
32r
16.c
=249
4B
8c
4c
8c[
=250
4.c]
4r
8G
=251
4e
8e
4e
8f
=252
4g
8g
4g
8a
=253
2.d
=254
4.g[
4g]
8g
=255
4g
8f
4f
8a
=256
4a
8g
4f
8g
=257
4g
8f
4e
8e-
=258
4.e
4.r
=259
2.cc
=260
4.cc
4cc
8dd
=261
4dd
8b
4a
8a
=262
4b
8cc
4dd
8ee
=263
4.a
4a
8ee
=264
4ee
8dd
4ee
8ee
=265
4dd
8cc
4b
8a[
=266
4.a]
4.r
=267
4r
8e
4.f[
=268
4f]
8d
4.e[
=269
8e]
8c
8d
8.B
16.G#
16.A
=270
4.f
4f
8c
=271
4.e
8e
32e[
16.e]
32r
16.c
=272
4c[
8c]
4A[
8A]
=273
4.a
8a
32a[
16.a]
32r
16.c
=274
4c[
8c]
4A[
8A]
=275
4.A
8.a
16.b
16.cc
=276
4.b
8b
8cc#
8dd
=277
4.cc#
8cc#
8dd
8ee
=278
8.dd
16.ee
16.ff
8.cc
16.dd
16.b
=279
16.a
16.r
16.aa
16.gg#
4.aa[
=280
8aa]
8aa[
8aa]
4.aa[
=281
8aa]
8aa[
8aa]
4.aa
=282
8aa[
32aa]
16.aa
32r
16.aa
8.aa
16.bb
16.gg#
=283
4.aa
4gg#
8gg#
=284
4ff
8dd
4.g#
=285
16.a
16.r
16.ddd
16.ccc#
4ddd
8ddd
=286
4bb
8gg#
4.dd
=287
32dd
16.dd[
8dd]
8dd
4.dd
=288
32dd
16.dd[
8dd]
8dd
4.dd[
=289
4.dd]
4.r
=290
2.r
=291
2.r
=292
64ff
32.gg
16r
4aa
32r
16.gg
32r
16.ff
32r
16.ee
=293
4.r
4.a
=294
8a
8a
8e
32r
16.f
32r
16.g
32r
16.a
=295
2.b-
=296
8b-
8b-
8f
32r
16.g
32r
16.a
32r
16.b-
=297
4.a
4.r
=298
2.r
=299
64ccc
32.ddd
16r
8eee-
32r
16.ddd
32r
16.ccc
32r
16.bb-
32r
16.aa
=300
32r
16.gg
32r
16.ff#
32r
16.ee-
8.dd
16.ee-
16.a
=301
8cc[
4cc]
4.r
=302
2.r
=303
64bb-
32.ccc
16r
8ccc#
32r
16.ccc
32r
16.bb-
32r
16.aa
32r
16.gg
=304
32r
16.ff
32r
16.ee
32r
16.dd
8.cc
16.dd
16.b-
=305
4.a
4.cc
=306
4.cc
4.ff
=307
4.ee
4.gg
=308
4.gg[
4.gg]
=309
4.a
4.cc
=310
4.cc
4aa[
8aa]
=311
4ee
8gg
4.bb-
=312
4bb-
8bb-
4gg
8ee
=313
4.a
4.cc[
=314
4.cc]
4.cc[
=315
4.cc]
8.b
16.a
16.g
=316
4.f#
4.f#
=317
4.e
4.r
=318
2.r
=319
4.r
4.ff[
=320
4.ff]
4.ff[
=321
4.ff]
8.ee
16.dd
16.cc
=322
4.b
4.b
=323
4.a
4.r
=324
2.r
=325
4.r
4.bb-[
=326
4.bb-]
4.bb-[
=327
4.bb-]
8.aa
16.gg
16.ff
=328
4.ee
4.ee
=329
4.dd
4.c#
=330
8c#[
32c#]
16.c#
32r
16.c#
32r
16.c#
32r
16.d
32r
16.e
=331
32r
16.f
32r
16.aa
32r
16.gg
32r
16.ff
32r
16.ee
32r
16.dd
=332
4.cc#
4.r
=333
32r
16.dd
32r
16.aa
32r
16.gg
32r
16.ff
32r
16.ee
32r
16.dd
=334
4.cc#
4.r
=335
32r
16.ff
32r
16.ee
32r
16.dd
32r
16.cc
32r
16.b
32r
16.a
=336
4.g#
4.r
=337
32r
16.a
32r
16.ee
32r
16.dd
32r
16.cc
32r
16.b
32r
16.a
=338
4.g#
4.r
=339
4cc[
8cc]
32r
16.a
32r
16.g
32r
16.f
=340
32r
16.e
32r
16.d
32r
16.c
32r
16.B
32r
16.c
32r
16.A
=341
16.e
16.r
16.ee
16.dd#
4.ee
=342
8ee
8ff[
8ff]
4.ee-
=343
4.ee
8r
8e
8g#
=344
4.f#
8f#
8a[
8a]
=345
4.e
8e
8f[
8f]
=346
4.f
8f
8b-[
8b-]
=347
4.g#
8g#
8dd[
8dd]
=348
4.dd[
8dd]
8dd[
8dd]
=349
4.dd
8dd
8dd
8b
=350
4.g#[
4g#]
8g#
=351
4.a[
4a]
8a
=352
4.a
4g#
8g#
=353
4.a
8a
8a
8g
=354
8.e
16.d
16.c
8.B
16.c
16.A
=355
2.d
=356
4.d[
4d]
8e
=357
4.ee
4ee[
8ee]
=358
8.dd
16.cc
16.b
4a
32r
16.a
=359
8.a
16.g#
16.a
4b
32r
16.b
=360
8.b
16.a
16.b
4cc
8cc
=361
4.ee
4ee[
8ee]
=362
8.dd
16.cc
16.b
4a
32r
16.a
=363
8.a
16.g#
16.a
4b
32r
16.b
=364
8.b
16.cc
16.b
4.a
=365
2.e
=366
4.f
4.f
=367
4.g
4.g
=368
4.a
4a[
8a]
=369
2.e
=370
4.f
4.f
=371
4.g
4.g
=372
4.a[
4.a]
=373
2.r
=374
4.r
4r
8f
=375
4.ff
4ff[
8ff]
=376
8.ee-
16.dd
16.cc
4b-
32r
16.b-
=377
8.b-
16.a
16.b-
4cc
32r
16.cc
=378
8.cc
16.b-
16.cc
4dd
32r
16.dd
=379
8.dd
16.cc#
16.dd
4ee
32r
16.ee
=380
8.ee
16.dd
16.ee
4ff
32r
16.ff
=381
4.ff[
4ff]
8aa[
=382
4aa]
8ff[
4ff]
8aa[
=383
4aa]
8ff[
4ff]
8ff[
=384
4ff]
32r
16.dd
4cc
32r
16.b
=385
4.cc
4.r
=386
4.a
4.r
=387
64dd
32.ee
16r
4ff
8.ee
16.dd
16.cc
=388
4.b
4.r
=389
4.B
8.g#
16.a
16.b
=390
4.cc
8.cc#
16.dd
16.ee
=391
4.a
4.a
=392
4.a
8.ee
16.cc
16.a
=393
8.e
16.g#
16.b
4.ee
=394
8.a
16.cc
16.ee
4.aa
=395
8.dd
16.ff
16.aa
4.ddd
=396
8.gg
16.bb
16.ddd
4.ggg
=397
8ggg
8ggg
8fff#
8.ggg
16.ddd
16.fff
=398
8.eee-
16.bb
16.ddd
8ddd
8ccc
8aa
=399
32r
16.gg
8dd[
8dd]
8.b
16.B
16.d
=400
8.c
16.d
16.f
8f
8e-
32r
16.c
=401
4B
8c
4c
8c[
=402
4.c]
4r
8G
=403
4e
8e
4e
8f
=404
4g
8g
4g
8a
=405
2.d
=406
4.g[
4g]
8g
=407
4g
8f
4f
8a
=408
4a
8g
4f
8g
=409
4g
8f
4e
8e-
=410
4.e
4.r
=411
2.cc
=412
4.cc
4cc
8dd
=413
4dd
8b
4a
8a
=414
4b
8cc
4dd
8ee
=415
4.a
4a
8ee
=416
4ee
8dd
4ee
8ee
=417
4dd
8cc
4b
8a[
=418
4.a]
4.r
=419
4r
8e
4.f[
=420
4f]
8d
4.e[
=421
8e]
8c
8d
8.B
16.G#
16.A
=422
4.f
4f
8c
=423
4.e
8e
32e[
16.e]
32r
16.c
=424
4c[
8c]
4A[
8A]
=425
4.a
8a
32a[
16.a]
32r
16.c
=426
4c[
8c]
4A[
8A]
=427
4.A
8.a
16.b
16.cc
=428
4.b
8b
8cc#
8dd
=429
4.cc#
8cc#
8dd
8ee
=430
8.dd
16.ee
16.ff
8.cc
16.dd
16.b
=431
16.a
16.r
16.aa
16.gg#
4.aa[
=432
8aa]
8aa[
8aa]
4.aa[
=433
8aa]
8aa[
8aa]
4.aa
=434
8aa[
32aa]
16.aa
32r
16.aa
8.aa
16.bb
16.gg#
=435
4.aa
4gg#
8gg#
=436
4ff
8dd
4.g#
=437
16.a
16.r
16.ddd
16.ccc#
4ddd
8ddd
=438
4bb
8gg#
4.dd
=439
32dd
16.dd[
8dd]
8dd
4.dd
=440
32dd
16.dd[
8dd]
8dd
4.dd[
=441
4.dd]
4.r
=442
2.r
=443
64ff
32.gg
16r
4aa
32r
16.gg
32r
16.ff
32r
16.ee
=444
4.dd
4r
8a
=445
4.aa
4aa[
8aa]
=446
8.gg
16.ff
16.ee
4dd
32r
16.dd
=447
8.dd
16.cc#
16.dd
4ee
32r
16.ee
=448
8.ee
16.dd
16.ee
16.ff
16.r
16.d
16.c
=449
2.e
=450
2.e
=451
2.e[
=452
2.e]
=453
2.r
=454
4.r
4r
8e
=455
4.ee
4ee[
8ee]
=456
8.dd
16.cc
16.b
4a
32r
16.a
=457
8.a
16.g#
16.a
4b
32r
16.b
=458
8.b
16.a
16.b
4cc
32r
16.cc
=459
8.cc
16.b
16.cc
4dd
8ff
=460
4.cc[
4.cc]
=461
8A
32A
16.a
32r
16.a
32r
16.a
32r
16.a
32r
16.a
=462
4.a[
4.a]
=463
8a
32a
16.aa
32r
16.aa
32r
16.aa
32r
16.aa
32r
16.aa
=464
4.aa[
4.aa]
=465
64cc
32.dd
16r
4ee
32r
16.dd
32r
16.cc
32r
16.b
=466
64f
32.g
16r
4a
32r
16.g
32r
16.f
32r
16.e
=467
4.r
4.a
=468
2.r
=469
4.r
4.dd
=470
2.r
=471
4.e
4.r
=472
4.cc
4.r
=473
4.a
4r
8a
=474
2.r
==
*-
